/*
Tuesday, October 9th 2012
Somewhere in Mississippi, going from Birmingham, AL to New Orleans, LA
With the Dan Deacon Ensemble
Load SynthDefs.scd
prm
*/

"/SynthDefs/Load Control SynthDefs.scd".loadRelative;
"/SynthDefs/Load Effects SynthDefs.scd".loadRelative;
"/SynthDefs/Load Machine Listening SynthDefs.scd".loadRelative;
"/SynthDefs/Load Utility SynthDefs.scd".loadRelative;
"/SynthDefs/Load Synth SynthDefs.scd".loadRelative;

