/*
Tuesday, October 9th 2012
Load Utility SynthDefs.scd
prm
*/

"Synth SynthDefs/ratioSaw.scd".loadRelative;
"Synth SynthDefs/hammond.scd".loadRelative;
"Synth SynthDefs/pianoFade.scd".loadRelative;
"Synth SynthDefs/susSampler.scd".loadRelative;
